X: 218
T: Bana N`oldu
C: Rahmi Bey
O: Turkey
F: http://compmusic.upf.edu/node/140
N: beyati-araban--sarki--aksak--bana_noldu--rahmi_bey
N: makam= beyati-araban
N: form= sarki
N: usul= aksak = 9/8
M: 9/8
L: 1/16
K: C _1/4B _7/8e ^f 
Q: 1/4=120
%%MIDI tuningsystem comma53
(3c'2_b2a2 (3g2^3/4f2_3/4e2 d4 f2g2 a2 | \
w:  ARANAĞME  | 
(3_b2a2g2(3^3/4f2_3/4e2d2c4=e2 =f2g2  | \
w:   | 
=e3d c2e2 d2c_2/4B dcB2 BA | 
w:   | 
A6 G2c2 _2/4BAA6  | (3c'2_b2a2 (3g2^3/4f2_3/4e2 d4 f2g2 a2 | \
w:   |  ARANAĞME  | 
(3_b2a2g2(3^3/4f2_3/4e2d2c4=e2 =f2g2  | 
w:   | 
=e3d c2e2 d2c_2/4B dcB2 BA | A6 G2c2 _2/4BAA6  | \
w:   |   | 
g2g4a2 a4 a6 | 
w:  Ba na  *  n`ol du   | 
a2 _b2a2 g2^3/4f2 _3/4e2d6  | a2_b2 ag^3/4fg a2g2 a2b2 ba | \
w:  de ğiş *  *  ti  *  şim  |  di  hâ  | 
a6 a_bag ^3/4f_3/4ed6  | 
w:  lim   SAZ  | 
g2g4a2 a4 a6 | a2 _b2a2 g2^3/4f2 _3/4e2d6  | \
w:  Ba na  *  n`ol du   |  de ğiş *  *  ti  *  şim  | 
a2_b2 ag^3/4fg a2g2 a2b2 ba | 
w:  di  hâ  | 
a6 a_bag ^3/4fga6  | a2_b4ba ag^3/4fg a2f2 _3/4ed | \
w:  lim   SAZ  |  De mâ *  *  dem  *  *  *  ar  | 
^3/4f2 g4 gff_3/4e edd4z2  | 
w:  tı yor  *  *  dil *  *  *  de   | 
a2g2 ^3/4f2_3/4e2 d2c2 d2e2 ed | d6 d=edc _2/4Bdcd c2B2  | 
w:  me lâ  |  lim   SAZ  | 
c2d2 c2_2/4B2 d4 dcBA G2 | A2 _2/4B2c2 d2_3/4e2 d2g^3/4f edc2  | 
w:  De mâ *  *  dem  ar  |  tı yor  *  *  dil *  de   | 
_2/4B2c4cB B2A2 A2G2 {c}BA | A6 =e=fed cde6  | \
w:  me lâ  |  lim   SAZ  | 
d2=e6 e2a2 _3/4e2d2 c2 | 
w:  Re vân dır  *  göz  | 
d2 _3/4e2da g^3/4fed c_2/4Bc4z2  | \
w:  le rim *  *  *  *  den  *  *  *  eşk_  | 
^3/4f2g2 f2_3/4e2 d2c2 d2e2 ed | 
w:  i  â  | 
d6 =e=fed cde6  | d2=e6 e2a2 _3/4e2d2 c2 | \
w:  lim   SAZ  |  Re vân dır  *  göz  | 
d2 _3/4e2da g^3/4fed c_2/4Bc4z2  | 
w:  le rim *  *  *  *  den  *  *  *  eşk_  | 
^3/4f2g2 a2_2/4b2 a2b2 c'2b2 ba | \
w:  i  â  | 
a6 a_bag ^3/4fga6  | a2_b4ba ag^3/4fg a2f2 _3/4ed | 
w:  lim   SAZ  |  De mâ *  *  dem  *  *  *  ar  | 
^3/4f2 g4 gff_3/4e edd4z2  | a2g2 ^3/4f2_3/4e2 d2c2 d2e2 ed | \
w:  tı yor  *  *  dil *  *  *  de   |  me lâ  | 
d6 d=edc _2/4Bdcd c2B2  | 
w:  lim   SAZ  | 
c2d2 c2_2/4B2 d4 dcBA G2 | A2 _2/4B2c2 d2_3/4e2 d2g^3/4f edc2  | 
w:  De mâ *  *  dem  ar  |  tı yor  *  *  dil *  de   | 
_2/4B2c4cB B2A2 A2G2 {c}BA | A6 dcc_2/4B BAA6  | |


